Workbooks/Images/Logos/illusive_logo_workbook.svg

<?xml version="1.0" encoding="UTF-8"?>
<svg width="126px" height="180px" viewBox="0 0 126 180" version="1.1" xmlns="http://www.w3.org/2000/svg" xmlns:xlink="http://www.w3.org/1999/xlink">
    <!-- Generator: Sketch 62 (91390) - https://sketch.com -->
    <title>logo/illusive_symbol_only</title>
    <desc>Created with Sketch.</desc>
    <g id="logo/illusive_symbol_only" stroke="none" stroke-width="1" fill="none" fill-rule="evenodd">
        <g id="illusive_symbol" fill="#FF9E29">
            <path d="M123.09,168.15 C121.913206,169.176134 120.512483,169.912456 119,170.3 C116.967247,170.811016 114.875624,171.049771 112.78,171.01 L72.28,171.01 C71.0704088,171.07008 69.8949159,171.430977 68.86,172.06 C68.1713866,172.559513 67.6515767,173.257245 67.37,174.06 C67.0789891,174.933901 66.9304253,175.848919 66.93,176.77 C66.9116528,177.841904 66.8180895,178.911198 66.65,179.97 L59.42,179.97 C59.288358,179.141959 59.2015647,178.307409 59.16,177.47 C59.1418174,176.740103 59.0783622,176.012037 58.97,175.29 C58.8838836,174.66697 58.7052486,174.060285 58.44,173.49 C58.160057,172.932316 57.7217484,172.469657 57.18,172.16 C56.4373742,171.74302 55.62915,171.455577 54.79,171.31 C53.5120993,171.090166 52.2165132,170.989733 50.92,171.01 L13.2,171.01 C11.1109992,171.04918 9.02606271,170.810421 7,170.3 C5.48751702,169.912456 4.086794,169.176134 2.91,168.15 C1.87483686,167.181218 1.10680641,165.962013 0.68,164.61 C0.199739638,163.008296 -0.0296438653,161.341893 -1.66533454e-15,159.67 C-1.66533454e-15,158.49 -1.66533454e-15,157.45 0.05,156.55 C0.1,155.65 0.14,154.88 0.19,154.25 C0.24,153.62 0.29,152.88 0.34,152.32 L12,152.32 C12.020015,153.279975 12.1406753,154.235201 12.36,155.17 C12.5073148,155.805751 12.8294394,156.387653 13.29,156.85 C13.7769689,157.276899 14.3784687,157.551573 15.02,157.64 C15.9367045,157.777876 16.8630552,157.841416 17.79,157.83 L55.8,157.83 C56.5633045,157.826148 57.3257069,157.882994 58.08,158 C58.7465033,158.099913 59.3918844,158.309408 59.99,158.62 C60.6034466,158.939993 61.1499519,159.374482 61.6,159.9 C62.1525422,160.544984 62.6043214,161.269854 62.94,162.05 C63.2610987,161.241189 63.7289611,160.498712 64.32,159.86 C64.837983,159.328372 65.4477834,158.894737 66.12,158.58 C66.7865216,158.277372 67.4942066,158.075176 68.22,157.98 C68.97926,157.880262 69.7442172,157.830156 70.51,157.83 L107.09,157.83 C108.133223,157.842064 109.17595,157.778564 110.21,157.64 C110.884596,157.563036 111.521331,157.288162 112.04,156.85 C112.501877,156.391624 112.818399,155.807275 112.95,155.17 C113.157898,154.233682 113.271796,153.278948 113.29,152.32 L125.66,152.32 C125.73,152.88 125.8,153.52 125.85,154.25 C125.9,154.98 125.94,155.65 125.96,156.55 C125.98,157.45 125.96,158.49 125.96,159.67 C125.989644,161.341893 125.76026,163.008296 125.28,164.61 C124.853194,165.962013 124.085163,167.181218 123.05,168.15 L123.09,168.15 Z" id="Path"></path>
            <polygon id="Path" points="81.92 90.69 126 90.69 126 104.88 81.92 104.88 81.92 90.69"></polygon>
            <polygon id="Path" points="102.34 18.42 94.29 45.21 78.92 45.21 95.38 0 108.77 0 126 45.21 110.99 45.21 102.34 18.42"></polygon>
            <polygon id="Path" points="47.61 114.11 35.42 122.96 26.54 110.64 17.71 122.96 5.59 114.11 14.47 101.85 0 97.25 4.69 83.02 19.09 87.68 19.09 72.61 34.11 72.61 34.11 87.68 48.46 83.02 53.14 97.25 38.67 101.85 47.61 114.11 47.61 114.11"></polygon>
            <polygon id="Path" points="23.42 18.42 15.37 45.21 0 45.21 16.45 0 29.84 0 47.07 45.21 32.07 45.21 23.42 18.42 23.42 18.42"></polygon>
        </g>
    </g>
</svg>

<svg id="Layer_1" data-name="Layer 1" xmlns="http://www.w3.org/2000/svg" viewBox="0 0 126 179.97"><defs><style>.cls-1{fill:#ff9e29;fill-rule:evenodd;}</style></defs><title>illusive_logo_symbol</title><g id="illusive_symbol" data-name="illusive symbol"><path id="Path" class="cls-1" d="M123.09,168.15A10,10,0,0,1,119,170.3a23.67,23.67,0,0,1-6.22.71H72.28a7.25,7.25,0,0,0-3.42,1.05,4.18,4.18,0,0,0-1.49,2,8.59,8.59,0,0,0-.44,2.71,22.91,22.91,0,0,1-.28,3.2H59.42a23.27,23.27,0,0,1-.26-2.5,17.65,17.65,0,0,0-.19-2.18,6.32,6.32,0,0,0-.53-1.8,3.17,3.17,0,0,0-1.26-1.33,7.5,7.5,0,0,0-2.39-.85,20.9,20.9,0,0,0-3.87-.3H13.2A23.57,23.57,0,0,1,7,170.3a10,10,0,0,1-4.09-2.15,8.25,8.25,0,0,1-2.23-3.54A16.2,16.2,0,0,1,0,159.67c0-1.18,0-2.22.05-3.12s.09-1.67.14-2.3.1-1.37.15-1.93H12a13.64,13.64,0,0,0,.36,2.85,3.5,3.5,0,0,0,.93,1.68,3.31,3.31,0,0,0,1.73.79,17.12,17.12,0,0,0,2.77.19h38a14.49,14.49,0,0,1,2.28.17,6.11,6.11,0,0,1,1.91.62,5.39,5.39,0,0,1,1.61,1.28,8.53,8.53,0,0,1,1.34,2.15,7.06,7.06,0,0,1,1.38-2.19,6.16,6.16,0,0,1,1.8-1.28,7.65,7.65,0,0,1,2.1-.6,17.5,17.5,0,0,1,2.29-.15h36.58a21.69,21.69,0,0,0,3.12-.19,3.47,3.47,0,0,0,1.83-.79,3.31,3.31,0,0,0,.91-1.68,14.41,14.41,0,0,0,.34-2.85h12.37c.07.56.14,1.2.19,1.93s.09,1.4.11,2.3,0,1.94,0,3.12a16.2,16.2,0,0,1-.68,4.94,8.25,8.25,0,0,1-2.23,3.54Z" transform="translate(0 0)"/><polygon class="cls-1" points="81.92 90.69 126 90.69 126 104.88 81.92 104.88 81.92 90.69"/><polygon class="cls-1" points="102.34 18.42 94.29 45.21 78.92 45.21 95.38 0 108.77 0 126 45.21 110.99 45.21 102.34 18.42"/><polygon class="cls-1" points="47.61 114.11 35.42 122.96 26.54 110.64 17.71 122.96 5.59 114.11 14.47 101.85 0 97.25 4.69 83.02 19.09 87.68 19.09 72.61 34.11 72.61 34.11 87.68 48.46 83.02 53.14 97.25 38.67 101.85 47.61 114.11 47.61 114.11"/><polygon class="cls-1" points="23.42 18.42 15.37 45.21 0 45.21 16.45 0 29.84 0 47.07 45.21 32.07 45.21 23.42 18.42 23.42 18.42"/></g></svg>
